X:1
T:Blenden, CMD
T:Blenden, CMD
T:Charles Edward Kettle, 1876
T:Public Domain Courtesy of the Cyber Hymnal™
C:Charles Edward Kettle, 1876
Z:Public Domain
Z:Courtesy of the Cyber Hymnal™
%%score ( 1 2 ) 3
L:1/8
Q:1/4=115
M:4/4
K:F
V:1 treble 
V:2 treble 
V:3 bass 
V:1
 [FA]2 | [FB]2 [FA]2 [DG]2 D2 | [DE]2 [CE]2 [CF]2 [^CG]2 | [DA]2 [DA]2 [FA]2 [FB]2 | [EG]6 [FA]2 | %5
 [FB]2 [FA]2 [Ed]2 [Ec]2 | [Fc]2 [F=B]2 [E_B]2 [^DA]2 | [EG]2 [EG]2 [FG]2 [FG]2 | [EG]6 [EG]2 | %9
 [FA]2 [CF]2 B2 [FA]2 | [DG]2 [DF]2 [CE]2 [EG]2 | [FA]2 [FA]2 [F=B]2 [FB]2 | [Ec]6 [FA]2 | %13
 [FB]2 [FA]2 [Gd]2 [Gc]2 | [Ff]2 [_EA]2 [Dc]2 [DB]2 | [FA]2 F2 [FA]2 [EG]2 | F6 |] %17
V:2
 x2 | x6 D2 | x8 | x8 | x8 | x8 | x8 | x8 | x8 | x4 (DE) x2 | x8 | x8 | x8 | x8 | x8 | x8 | F6 |] %17
V:3
 [F,C]2 | [F,D]2 [F,C]2 [B,,B,]2 [B,,B,]2 | [C,B,]2 [C,B,]2 [F,A,]2 [E,G,]2 | %3
 [D,F,]2 [D,F,]2 [B,,D]2 [B,,D]2 | [C,C]6 [F,C]2 | [F,D]2 [F,C]2 [B,C]2 [B,C]2 | %6
 [A,C]2 [_A,D]2 [G,C]2 [^F,C]2 | [G,C]2 [G,C]2 [G,,=B,]2 [=B,,D]2 | [C,C]6 [C,C]2 | %9
 [F,C]2 [A,C]2 [G,B,]2 [F,C]2 | [B,,G,]2 [=B,,G,]2 [C,G,]2 [C,C]2 | [F,C]2 [E,C]2 [D,G,]2 [D,G,]2 | %12
 [C,C]6 [F,C]2 | [F,D]2 [F,C]2 [B,E]2 [B,E]2 | [A,F]2 [^F,C]2 [G,B,]2 [G,B,]2 | %15
 [C,C]2 [C,A,]2 [C,C]2 [C,B,]2 | [F,,F,A,]6 |] %17

